X: 16
M: 6/8
L: 1/8
Q: 1/4=126
K: D
| "D"AFG (Agf) | "A"ede "D"(fdB) | "D"AFG AdF | "A7"EFE E2F/G/ \
| "D"AFG Aaf | "G"ede "D"fdB | "D"AFA "A"faf | "D"ddd d2 :|
|: f/g/ \
| "D"[aA]fa afa | "G"gab bag | "D"fga agf | "A7"gfg efg \
| "D"ka3 kf3 | "Em"e>de fdB | "D"AFA "A"faf | "D"ddd d2 :|


